X: 598
T: Buhe nuyide batou weng
%%abc-version 2.0
%%abcx-abcm2ps-target-version 5.9.1 (29 Sep 2008)
%%abc-creator hum2abc beta
%%abcx-conversion-date 2013/10/02 07:52:30
%%abc-edited-by Helmut Schaffrath
%%humdrum-veritas 2973571987
%%humdrum-veritas-data 7786613
%%continueall 1
%%barnumbers 0
L: 1/8
M: 2/4
K: C
G G/ G/ E G [I:setbarnb 1]| 
A EG2 | 
G4 | 
E G A c/ c/ | 
G E D C | 
D4 | 
D E G G | 
E G G E | 
D/ E/ D/ C/ C G, | 
A,4 | 
D/ E/ D/ C/ D E | 
D4 | 
C/ C/ C/ A,/ E, G, | 
G,4 |]  



